projects/elements/src/icon/icons/bounding-box.svg

<svg fill="none" height="16" viewBox="0 0 18 16" width="18" xmlns="http://www.w3.org/2000/svg"><path d="m15.8557 11.7453v-7.4914c.6803-.39607 1.1428-1.12464 1.1428-1.96857 0-1.2625-1.0232-2.28571147-2.2857-2.28571147-.8439 0-1.5728.46250047-1.9685 1.14286147h-7.49148c-.39571-.680361-1.12464-1.14286147-1.96857-1.14286147-1.2625 0-2.285715 1.02321147-2.285715 2.28571147 0 .84393.462505 1.57286 1.142855 1.96857v7.4911c-.68035.396-1.142855 1.125-1.142855 1.9689 0 1.2625 1.023215 2.2857 2.285715 2.2857.84393 0 1.57286-.4625 1.96857-1.1428h7.49108c.3961.6803 1.1246 1.1428 1.9686 1.1428 1.2625 0 2.2857-1.0232 2.2857-2.2857.0003-.8439-.4622-1.5729-1.1425-1.9686zm-11.42859 0v-7.4914c.34226-.19887.62684-.48344.82571-.82571h7.49108c.1989.34227.4834.62684.8257.82571v7.4911c-.3423.1988-.6268.4834-.8257.8257h-7.49108c-.19889-.3422-.48347-.6266-.82571-.8254zm10.85719-9.45997c0 .315-.2565.57143-.5715.57143s-.5714-.25643-.5714-.57143.2564-.57143.5714-.57143.5715.25643.5715.57143zm-12.00005-.57143c.315 0 .57143.25643.57143.57143s-.25643.57143-.57143.57143-.57143-.25643-.57143-.57143.25643-.57143.57143-.57143zm-.57143 12c0-.315.25643-.5714.57143-.5714s.57143.2564.57143.5714-.25643.5714-.57143.5714-.57143-.2564-.57143-.5714zm11.99998.5714c-.315 0-.5714-.2564-.5714-.5714s.2564-.5714.5714-.5714.5715.2564.5715.5714-.2565.5714-.5715.5714z" fill="currentColor"/></svg>

<svg xmlns="http://www.w3.org/2000/svg" fill="none" viewBox="1 0 16 16"><path fill="currentColor" d="M15.856 11.745V4.254a2.276 2.276 0 0 0 1.143-1.969A2.286 2.286 0 0 0 14.713 0c-.844 0-1.573.462-1.969 1.142H5.253A2.275 2.275 0 0 0 3.284 0 2.286 2.286 0 0 0 1 2.285c0 .844.462 1.573 1.142 1.969v7.491A2.276 2.276 0 0 0 1 13.714 2.286 2.286 0 0 0 3.284 16c.844 0 1.573-.463 1.969-1.143h7.49A2.276 2.276 0 0 0 14.714 16a2.286 2.286 0 0 0 2.285-2.286c0-.844-.462-1.573-1.142-1.969zm-11.429 0V4.254a2.28 2.28 0 0 0 .826-.826h7.49c.2.342.484.627.827.826v7.491a2.279 2.279 0 0 0-.826.826H5.253a2.279 2.279 0 0 0-.826-.826zm10.857-9.46a.572.572 0 1 1-1.144-.001.572.572 0 0 1 1.144.001zm-12-.571a.572.572 0 1 1-.001 1.144.572.572 0 0 1 .001-1.144zm-.571 12a.572.572 0 1 1 1.144.001.572.572 0 0 1-1.144-.001zm12 .571a.572.572 0 1 1 .001-1.144.572.572 0 0 1-.001 1.144z"/></svg>
